usr/share/icons/biglinux-icons-material-dark/16/actions/text_letter_spacing.svg

<svg xmlns="http://www.w3.org/2000/svg" viewBox="0 0 16 16">
  <defs id="defs3051">
    <style type="text/css" id="current-color-scheme">
      .ColorScheme-Text {
        color:#dedede;
      }
      </style>
  </defs>
 <path style="fill:currentColor;fill-opacity:1;stroke:none" 
       d="M 2 2 L 2 7 L 3 7 L 4.5 7 C 5.32843 7 6 6.32843 6 5.5 C 6 4.9666982 5.7318023 4.484728 5.3125 4.21875 C 5.4279583 4.00621 5.5 3.7588844 5.5 3.5 C 5.5 2.67157 4.82843 2 4 2 L 3 2 L 2.5 2 L 2 2 z M 10 2 L 10 7 L 11 7 L 12.5 7 C 13.32843 7 14 6.32843 14 5.5 L 14 3.5 C 14 2.67157 13.32843 2 12.5 2 L 11 2 L 10 2 z M 3 3 L 4 3 C 4.27614 3 4.5 3.22386 4.5 3.5 C 4.5 3.77614 4.27614 4 4 4 L 3 4 L 3 3 z M 11 3 L 12.5 3 C 12.77614 3 13 3.22386 13 3.5 L 13 4.09375 L 13 4.90625 L 13 5.5 C 13 5.77614 12.77614 6 12.5 6 L 11 6 L 11 3 z M 7 4 L 7 5 L 9 5 L 9 4 L 7 4 z M 3 5 L 4.5 5 C 4.77614 5 5 5.22386 5 5.5 C 5 5.77614 4.77614 6 4.5 6 L 3 6 L 3 5 z M 2 9 L 2 10 L 5 10 L 5 9 L 2 9 z M 7 9 L 7 10 L 9 10 L 9 9 L 7 9 z M 11 9 L 11 10 L 14 10 L 14 9 L 11 9 z M 6 11 L 2 12.5 L 6 14 L 6 11 z M 10 11 L 10 14 L 14 12.5 L 10 11 z M 8 12 C 7.7238576 12 7.5 12.223858 7.5 12.5 C 7.5 12.776142 7.7238576 13 8 13 C 8.2761424 13 8.5 12.776142 8.5 12.5 C 8.5 12.223858 8.2761424 12 8 12 z "
     class="ColorScheme-Text"
     />
</svg>

<svg xmlns="http://www.w3.org/2000/svg" viewBox="0 0 16 16">
<defs id="defs3051">
<style id="current-color-scheme" type="text/css">
.ColorScheme-Text{color:#dedede}
</style>
</defs>
<path d="M2 2v5h2.5A1.5 1.5 0 0 0 6 5.5c0-.533-.268-1.015-.687-1.281A1.5 1.5 0 0 0 5.5 3.5 1.5 1.5 0 0 0 4 2zm8 0v5h2.5A1.5 1.5 0 0 0 14 5.5v-2A1.5 1.5 0 0 0 12.5 2zM3 3h1a.5.5 0 0 1 0 1H3zm8 0h1.5a.5.5 0 0 1 .5.5v2a.5.5 0 0 1-.5.5H11zM7 4v1h2V4zM3 5h1.5a.5.5 0 0 1 0 1H3zM2 9v1h3V9zm5 0v1h2V9zm4 0v1h3V9zm-5 2-4 1.5L6 14zm4 0v3l4-1.5zm-2 1a.5.5 0 1 0 0 1 .5.5 0 0 0 0-1" class="ColorScheme-Text" style="fill:currentColor;fill-opacity:1;stroke:none"/>
</svg>
